X: 1
T: the Mountain Road
O: trad.
R: reel
Z: 2020 John Chambers <jc:trillian.mit.edu>
S: https://www.facebook.com/groups/Fiddletuneoftheday/
S: https://www.facebook.com/groups/Fiddletuneoftheday/photos/
M: C|
L: 1/8
K: D
|: "D"F2AF BFAF | F2AF "A"EFDE |\
[1 "D"F2AF BFAF | "G"G2FG "A"EDB,D :|\
[2 "D"FA A/A/A "G"BAFB | "A"ABde "(D)"fddc ||
|: "D"d3A BAFA | dcde "A"fgfe | "D"dcdB ADFA |\
[1 "G"G2FG "A"EFBc :|2 "G"G2FG "A"EFDE |]
